icons/arrow-square-rightB.svg

<svg width="24" height="24" viewBox="0 0 24 24" fill="none" xmlns="http://www.w3.org/2000/svg">
<path d="M15 21H9C5.7 21 3 18.3 3 15V9C3 5.7 5.7 3 9 3H15C18.3 3 21 5.7 21 9V15C21 18.3 18.3 21 15 21Z" fill="black"/>
<path fill-rule="evenodd" clip-rule="evenodd" d="M9 3.75C6.11421 3.75 3.75 6.11421 3.75 9V15C3.75 17.8858 6.11421 20.25 9 20.25H15C17.8858 20.25 20.25 17.8858 20.25 15V9C20.25 6.11421 17.8858 3.75 15 3.75H9ZM2.25 9C2.25 5.28579 5.28579 2.25 9 2.25H15C18.7142 2.25 21.75 5.28579 21.75 9V15C21.75 18.7142 18.7142 21.75 15 21.75H9C5.28579 21.75 2.25 18.7142 2.25 15V9Z" fill="black"/>
<path d="M12.6 9.09998L15.1 11.6C15.3 11.8 15.3 12.1 15.1 12.3L12.6 14.8" fill="black"/>
<path fill-rule="evenodd" clip-rule="evenodd" d="M12.0696 8.56965C12.3625 8.27675 12.8374 8.27675 13.1303 8.56965L15.6303 11.0696C16.1232 11.5625 16.1232 12.3374 15.6303 12.8303L13.1303 15.3303C12.8374 15.6232 12.3625 15.6232 12.0696 15.3303C11.7768 15.0374 11.7768 14.5625 12.0696 14.2696L14.3893 11.95L12.0696 9.63031C11.7768 9.33741 11.7768 8.86254 12.0696 8.56965Z" fill="white"/>
<path fill-rule="evenodd" clip-rule="evenodd" d="M7.84998 12C7.84998 11.5858 8.18576 11.25 8.59998 11.25H14.6C15.0142 11.25 15.35 11.5858 15.35 12C15.35 12.4142 15.0142 12.75 14.6 12.75H8.59998C8.18576 12.75 7.84998 12.4142 7.84998 12Z" fill="white"/>
</svg>

<svg xmlns="http://www.w3.org/2000/svg" fill="none" viewBox="0 0 24 24">
  <path fill="#000" d="M15 21H9c-3.3 0-6-2.7-6-6V9c0-3.3 2.7-6 6-6h6c3.3 0 6 2.7 6 6v6c0 3.3-2.7 6-6 6Z"/>
  <path fill="#000" fill-rule="evenodd" d="M9 3.75C6.114 3.75 3.75 6.114 3.75 9v6c0 2.886 2.364 5.25 5.25 5.25h6c2.886 0 5.25-2.364 5.25-5.25V9c0-2.886-2.364-5.25-5.25-5.25H9ZM2.25 9c0-3.714 3.036-6.75 6.75-6.75h6c3.714 0 6.75 3.036 6.75 6.75v6c0 3.714-3.036 6.75-6.75 6.75H9c-3.714 0-6.75-3.036-6.75-6.75V9Z" clip-rule="evenodd"/>
  <path fill="#000" d="m12.6 9.1 2.5 2.5c.2.2.2.5 0 .7l-2.5 2.5"/>
  <path fill="#fff" fill-rule="evenodd" d="M12.07 8.57a.75.75 0 0 1 1.06 0l2.5 2.5a1.233 1.233 0 0 1 0 1.76l-2.5 2.5a.75.75 0 0 1-1.06-1.06l2.32-2.32-2.32-2.32a.75.75 0 0 1 0-1.06Z" clip-rule="evenodd"/>
  <path fill="#fff" fill-rule="evenodd" d="M7.85 12a.75.75 0 0 1 .75-.75h6a.75.75 0 0 1 0 1.5h-6a.75.75 0 0 1-.75-.75Z" clip-rule="evenodd"/>
</svg>
